X: 31866
T: Pawky Adam Glen
R: waltz
M: 3/4
K: Edorian
|:fB Bd c2|fB Bd (3cde)|fB Bd c2|eA Ae (3cde):|
|:d/e/f/g/ ad f2|d/e/f/g/ ad ef|a>f g>e f2|eAAe (3cde):|

